src/scalable/mimetypes/application-x-rar.svg

<?xml version="1.0" encoding="UTF-8" standalone="no"?>
<svg
   xmlns:dc="http://purl.org/dc/elements/1.1/"
   xmlns:cc="http://creativecommons.org/ns#"
   xmlns:rdf="http://www.w3.org/1999/02/22-rdf-syntax-ns#"
   xmlns:svg="http://www.w3.org/2000/svg"
   xmlns="http://www.w3.org/2000/svg"
   xmlns:xlink="http://www.w3.org/1999/xlink"
   xmlns:sodipodi="http://sodipodi.sourceforge.net/DTD/sodipodi-0.dtd"
   xmlns:inkscape="http://www.inkscape.org/namespaces/inkscape"
   width="48px"
   height="48px"
   viewBox="0 0 48 48"
   version="1.1"
   id="svg39"
   sodipodi:docname="application-x-rar.svg"
   inkscape:version="0.92.2 2405546, 2018-03-11">
  <metadata
     id="metadata43">
    <rdf:RDF>
      <cc:Work
         rdf:about="">
        <dc:format>image/svg+xml</dc:format>
        <dc:type
           rdf:resource="http://purl.org/dc/dcmitype/StillImage" />
      </cc:Work>
    </rdf:RDF>
  </metadata>
  <sodipodi:namedview
     pagecolor="#ffffff"
     bordercolor="#666666"
     borderopacity="1"
     objecttolerance="10"
     gridtolerance="10"
     guidetolerance="10"
     inkscape:pageopacity="0"
     inkscape:pageshadow="2"
     inkscape:window-width="1920"
     inkscape:window-height="1051"
     id="namedview41"
     showgrid="false"
     inkscape:zoom="4.9166667"
     inkscape:cx="10.891759"
     inkscape:cy="3.1961915"
     inkscape:window-x="0"
     inkscape:window-y="29"
     inkscape:window-maximized="1"
     inkscape:current-layer="svg39" />
  <!-- Generator: Sketch 41.2 (35397) - http://www.bohemiancoding.com/sketch -->
  <title
     id="title2">application-x-rar</title>
  <desc
     id="desc4">Created with Sketch.</desc>
  <g
     id="g829">
    <rect
       rx="2"
       ry="1.9047618"
       y="4"
       x="6"
       height="40"
       width="36"
       id="rect834"
       style="opacity:1;fill:#f9a825;fill-opacity:1;stroke:none;stroke-width:0.92582005;stroke-linecap:round;stroke-linejoin:round;stroke-miterlimit:4;stroke-dasharray:none;stroke-opacity:0.05882353;paint-order:markers stroke fill" />
    <path
       inkscape:connector-curvature="0"
       id="rect866"
       d="M 42,17.242188 A 40,40 0 0 1 23.494141,44 H 40 c 1.108,0 2,-0.849059 2,-1.904297 z"
       style="opacity:0.15;fill:url(#linearGradient877);fill-opacity:1;stroke:none;stroke-width:0.92582005;stroke-linecap:round;stroke-linejoin:round;stroke-miterlimit:4;stroke-dasharray:none;stroke-opacity:0.05882353;paint-order:markers stroke fill" />
  </g>
  <defs
     id="defs11">
    <linearGradient
       inkscape:collect="always"
       xlink:href="#linearGradient875"
       id="linearGradient877"
       x1="32.74707"
       y1="44"
       x2="32.74707"
       y2="17.242188"
       gradientUnits="userSpaceOnUse" />
    <linearGradient
       inkscape:collect="always"
       id="linearGradient875">
      <stop
         style="stop-color:#000000;stop-opacity:1;"
         offset="0"
         id="stop871" />
      <stop
         style="stop-color:#000000;stop-opacity:0;"
         offset="1"
         id="stop873" />
    </linearGradient>
  </defs>
  <path
     style="fill:#ffffff;fill-rule:evenodd;stroke:none;stroke-width:1"
     d="M 24 29.5 C 23.446 29.5 23 29.946 23 30.5 L 23 36.5 C 23 37.054 23.446 37.5 24 37.5 L 36 37.5 C 36.554 37.5 37 37.054 37 36.5 L 37 30.5 C 37 29.946 36.554 29.5 36 29.5 L 24 29.5 z M 29.888672 31.130859 C 30.009766 31.130859 30.110351 31.155272 30.191406 31.201172 C 30.272456 31.247072 30.338867 31.30664 30.388672 31.378906 C 30.438472 31.451176 30.479496 31.52832 30.513672 31.611328 C 30.547852 31.694338 30.5918 31.804687 30.644531 31.943359 L 31.767578 34.714844 C 31.855468 34.925782 31.898438 35.080077 31.898438 35.175781 C 31.898438 35.275391 31.856449 35.36621 31.773438 35.449219 C 31.690427 35.532229 31.591797 35.572266 31.474609 35.572266 C 31.406249 35.572266 31.347656 35.561519 31.298828 35.537109 C 31.249998 35.512699 31.208988 35.47949 31.175781 35.4375 C 31.142581 35.39551 31.106443 35.331056 31.068359 35.244141 C 31.030269 35.157231 30.998043 35.080078 30.970703 35.013672 L 30.765625 34.474609 L 29.019531 34.474609 L 28.814453 35.025391 C 28.734373 35.240235 28.666015 35.385742 28.609375 35.460938 C 28.552735 35.536138 28.458985 35.572266 28.330078 35.572266 C 28.220703 35.572266 28.125001 35.533202 28.041016 35.453125 C 27.957026 35.373045 27.914062 35.281251 27.914062 35.179688 C 27.914062 35.121097 27.923859 35.060548 27.943359 34.998047 C 27.962889 34.935547 27.996096 34.84961 28.041016 34.738281 L 29.138672 31.949219 C 29.169922 31.869139 29.20801 31.772462 29.251953 31.660156 C 29.295903 31.547851 29.342773 31.455078 29.392578 31.380859 C 29.442378 31.306639 29.506836 31.24707 29.587891 31.201172 C 29.668941 31.155272 29.769531 31.130859 29.888672 31.130859 z M 24.433594 31.205078 L 25.849609 31.205078 C 26.044923 31.205078 26.210936 31.213869 26.349609 31.230469 C 26.488281 31.247069 26.61328 31.279293 26.724609 31.330078 C 26.859375 31.386718 26.978515 31.46875 27.082031 31.574219 C 27.185548 31.679688 27.264648 31.801757 27.318359 31.941406 C 27.372069 32.081056 27.398438 32.228515 27.398438 32.384766 C 27.398438 32.70508 27.307619 32.960937 27.126953 33.152344 C 26.946288 33.343751 26.673831 33.480468 26.306641 33.560547 C 26.460939 33.642577 26.607421 33.763671 26.748047 33.923828 C 26.888673 34.083985 27.014648 34.254882 27.125 34.435547 C 27.235352 34.616212 27.32129 34.77832 27.382812 34.923828 C 27.444333 35.069337 27.474609 35.169922 27.474609 35.224609 C 27.474609 35.281249 27.456052 35.336914 27.419922 35.392578 C 27.383792 35.448248 27.335937 35.493165 27.273438 35.525391 C 27.210938 35.557621 27.138673 35.572266 27.056641 35.572266 C 26.958981 35.572266 26.876954 35.549806 26.810547 35.503906 C 26.744137 35.458006 26.686524 35.400391 26.638672 35.330078 C 26.590822 35.259768 26.52539 35.156251 26.443359 35.019531 L 26.095703 34.439453 C 25.970702 34.226561 25.8584 34.064454 25.759766 33.953125 C 25.661136 33.841796 25.560547 33.765625 25.458984 33.724609 C 25.35742 33.683589 25.23047 33.664062 25.076172 33.664062 L 24.771484 33.664062 L 24.771484 35.042969 C 24.771484 35.22461 24.730468 35.359374 24.650391 35.445312 C 24.570311 35.531253 24.466798 35.572266 24.337891 35.572266 C 24.199219 35.572266 24.091797 35.529298 24.015625 35.439453 C 23.939455 35.349613 23.900391 35.216798 23.900391 35.042969 L 23.900391 31.738281 C 23.900391 31.55078 23.943358 31.416015 24.027344 31.332031 C 24.111324 31.248051 24.246093 31.205078 24.433594 31.205078 z M 33.064453 31.205078 L 34.480469 31.205078 C 34.675783 31.205078 34.841796 31.213869 34.980469 31.230469 C 35.119142 31.247069 35.24414 31.279293 35.355469 31.330078 C 35.490235 31.386718 35.609375 31.46875 35.712891 31.574219 C 35.816407 31.679688 35.895507 31.801757 35.949219 31.941406 C 36.002929 32.081056 36.029297 32.228515 36.029297 32.384766 C 36.029297 32.70508 35.938479 32.960937 35.757812 33.152344 C 35.577148 33.343751 35.304689 33.480468 34.9375 33.560547 C 35.091797 33.642577 35.238281 33.763671 35.378906 33.923828 C 35.519532 34.083985 35.645507 34.254882 35.755859 34.435547 C 35.866211 34.616212 35.952148 34.77832 36.013672 34.923828 C 36.075192 35.069337 36.105469 35.169922 36.105469 35.224609 C 36.105469 35.281249 36.086911 35.336914 36.050781 35.392578 C 36.014651 35.448248 35.966797 35.493165 35.904297 35.525391 C 35.841797 35.557621 35.769531 35.572266 35.6875 35.572266 C 35.58984 35.572266 35.507812 35.549806 35.441406 35.503906 C 35.374996 35.458006 35.317383 35.400391 35.269531 35.330078 C 35.221681 35.259768 35.156251 35.156251 35.074219 35.019531 L 34.726562 34.439453 C 34.601562 34.226561 34.489258 34.064454 34.390625 33.953125 C 34.291995 33.841796 34.191407 33.765625 34.089844 33.724609 C 33.988281 33.683589 33.861329 33.664062 33.707031 33.664062 L 33.402344 33.664062 L 33.402344 35.042969 C 33.402344 35.22461 33.361327 35.359374 33.28125 35.445312 C 33.20117 35.531253 33.097657 35.572266 32.96875 35.572266 C 32.830077 35.572266 32.722656 35.529298 32.646484 35.439453 C 32.570314 35.349613 32.53125 35.216798 32.53125 35.042969 L 32.53125 31.738281 C 32.53125 31.55078 32.574216 31.416015 32.658203 31.332031 C 32.742183 31.248051 32.876952 31.205078 33.064453 31.205078 z M 24.771484 31.857422 L 24.771484 33.039062 L 25.550781 33.039062 C 25.759766 33.039062 25.935546 33.020505 26.078125 32.984375 C 26.220703 32.948245 26.329101 32.887701 26.404297 32.800781 C 26.479497 32.713861 26.517578 32.593751 26.517578 32.441406 C 26.517578 32.322265 26.486331 32.217774 26.425781 32.126953 C 26.365231 32.036133 26.281251 31.966797 26.173828 31.921875 C 26.072265 31.878905 25.873049 31.857422 25.574219 31.857422 L 24.771484 31.857422 z M 33.402344 31.857422 L 33.402344 33.039062 L 34.181641 33.039062 C 34.390627 33.039062 34.566405 33.020505 34.708984 32.984375 C 34.851563 32.948245 34.959961 32.887701 35.035156 32.800781 C 35.110356 32.713861 35.148437 32.593751 35.148438 32.441406 C 35.148438 32.322265 35.117191 32.217774 35.056641 32.126953 C 34.996091 32.036133 34.912109 31.966797 34.804688 31.921875 C 34.703125 31.878905 34.503907 31.857422 34.205078 31.857422 L 33.402344 31.857422 z M 29.882812 32.048828 L 29.248047 33.820312 L 30.53125 33.820312 L 29.882812 32.048828 z "
     id="Rectangle-337" />
  <polygon
     id="Rectangle-327"
     points="13,12.5 13,10.5 15.666667,10.5 17,11.5 15.666667,12.5 "
     style="fill:#ffffff;fill-rule:evenodd;stroke:none;stroke-width:1" />
  <polygon
     id="polygon18"
     transform="matrix(-1,0,0,1,34,0)"
     points="15,14.5 15,12.5 17.666667,12.5 19,13.5 17.666667,14.5 "
     style="fill:#ffffff;fill-rule:evenodd;stroke:none;stroke-width:1" />
  <polygon
     id="polygon20"
     transform="matrix(-1,0,0,1,34,0)"
     points="15,18.5 15,16.5 17.666667,16.5 19,17.5 17.666667,18.5 "
     style="fill:#ffffff;fill-rule:evenodd;stroke:none;stroke-width:1" />
  <polygon
     id="polygon22"
     points="13,16.5 13,14.5 15.666667,14.5 17,15.5 15.666667,16.5 "
     style="fill:#ffffff;fill-rule:evenodd;stroke:none;stroke-width:1" />
  <polygon
     id="polygon24"
     transform="matrix(-1,0,0,1,34,0)"
     points="15,22.5 15,20.5 17.666667,20.5 19,21.5 17.666667,22.5 "
     style="fill:#ffffff;fill-rule:evenodd;stroke:none;stroke-width:1" />
  <polygon
     id="polygon26"
     points="13,20.5 13,18.5 15.666667,18.5 17,19.5 15.666667,20.5 "
     style="fill:#ffffff;fill-rule:evenodd;stroke:none;stroke-width:1" />
  <polygon
     id="polygon28"
     transform="matrix(-1,0,0,1,34,0)"
     points="15,26.5 15,24.5 17.666667,24.5 19,25.5 17.666667,26.5 "
     style="fill:#ffffff;fill-rule:evenodd;stroke:none;stroke-width:1" />
  <polygon
     id="polygon30"
     points="13,24.5 13,22.5 15.666667,22.5 17,23.5 15.666667,24.5 "
     style="fill:#ffffff;fill-rule:evenodd;stroke:none;stroke-width:1" />
  <polygon
     id="polygon32"
     transform="matrix(-1,0,0,1,34,0)"
     points="15,30.5 15,28.5 17.666667,28.5 19,29.5 17.666667,30.5 "
     style="fill:#ffffff;fill-rule:evenodd;stroke:none;stroke-width:1" />
  <polygon
     id="polygon34"
     points="13,28.5 13,26.5 15.666667,26.5 17,27.5 15.666667,28.5 "
     style="fill:#ffffff;fill-rule:evenodd;stroke:none;stroke-width:1" />
  <path
     d="m 16,37.5 c 3,0 1,-2.619288 1,-4 0,-1.380712 0,-2 -1,-2 -1,0 -1,0.619288 -1,2 0,1.380712 -2,4 1,4 z m 0,-0.634766 c 0.552285,0 1,-0.447715 1,-1 0,-0.552284 -0.447715,-1 -1,-1 -0.552285,0 -1,0.447716 -1,1 0,0.552285 0.447715,1 1,1 z"
     id="Combined-Shape"
     inkscape:connector-curvature="0"
     style="fill:#ffffff;fill-rule:evenodd;stroke:none;stroke-width:1" />
</svg>

<svg xmlns="http://www.w3.org/2000/svg" xmlns:xlink="http://www.w3.org/1999/xlink" width="48" height="48"><g paint-order="markers stroke fill"><rect rx="2" ry="1.905" y="4" x="6" height="40" width="36" fill="#f9a825"/><path d="M42 17.242A40 40 0 0 1 23.494 44H40c1.108 0 2-.85 2-1.904z" opacity=".15" fill="url(#a)"/></g><defs><linearGradient xlink:href="#b" id="a" x1="32.747" y1="44" x2="32.747" y2="17.242" gradientUnits="userSpaceOnUse"/><linearGradient id="b"><stop offset="0"/><stop offset="1" stop-opacity="0"/></linearGradient></defs><path d="M24 29.5c-.554 0-1 .446-1 1v6c0 .554.446 1 1 1h12c.554 0 1-.446 1-1v-6c0-.554-.446-1-1-1H24zm5.889 1.63c.12 0 .221.025.302.071a.588.588 0 0 1 .198.178c.05.072.09.15.125.232.034.083.078.194.13.332l1.124 2.772c.087.21.13.365.13.46 0 .1-.042.191-.125.274a.405.405 0 0 1-.298.123.39.39 0 0 1-.176-.035.36.36 0 0 1-.123-.1.914.914 0 0 1-.108-.193c-.038-.087-.07-.164-.097-.23l-.205-.54H29.02l-.206.551c-.08.215-.148.36-.205.436-.056.075-.15.111-.279.111a.405.405 0 0 1-.289-.119.37.37 0 0 1-.127-.273c0-.059.01-.12.03-.182.019-.062.052-.148.097-.26l1.098-2.789c.03-.08.069-.177.113-.289.044-.112.09-.205.14-.28a.567.567 0 0 1 .497-.25zm-5.455.075h1.416c.195 0 .36.009.5.025.138.017.263.05.375.1a1.089 1.089 0 0 1 .593.611c.054.14.08.288.08.444 0 .32-.09.576-.271.767-.18.192-.453.328-.82.409.154.082.3.203.441.363.14.16.267.33.377.512.11.18.196.342.258.488.061.145.092.246.092.3a.306.306 0 0 1-.055.169.378.378 0 0 1-.147.132.466.466 0 0 1-.216.047.422.422 0 0 1-.246-.068.662.662 0 0 1-.172-.174 6.825 6.825 0 0 1-.196-.31l-.347-.58a3.189 3.189 0 0 0-.336-.487.83.83 0 0 0-.301-.228 1.028 1.028 0 0 0-.383-.06h-.305v1.378c0 .182-.04.316-.12.402a.405.405 0 0 1-.313.127c-.139 0-.246-.043-.322-.133-.077-.09-.116-.222-.116-.396v-3.305c0-.187.043-.322.127-.406.084-.084.22-.127.407-.127zm8.63 0h1.416c.196 0 .362.009.5.025.14.017.264.05.375.1a1.089 1.089 0 0 1 .594.611c.054.14.08.288.08.444 0 .32-.09.576-.271.767-.18.192-.453.328-.82.409.154.082.3.203.44.363.142.16.268.33.378.512.11.18.196.342.258.488.061.145.091.246.091.3a.306.306 0 0 1-.054.169.378.378 0 0 1-.147.132.466.466 0 0 1-.217.047.422.422 0 0 1-.246-.068.662.662 0 0 1-.171-.174 6.826 6.826 0 0 1-.196-.31l-.347-.58a3.189 3.189 0 0 0-.336-.487.83.83 0 0 0-.301-.228 1.028 1.028 0 0 0-.383-.06h-.305v1.378c0 .182-.04.316-.12.402a.405.405 0 0 1-.313.127c-.139 0-.246-.043-.323-.133-.076-.09-.115-.222-.115-.396v-3.305c0-.187.043-.322.127-.406.084-.084.219-.127.406-.127zm-8.293.652v1.182h.78c.209 0 .385-.018.527-.055a.616.616 0 0 0 .326-.183.532.532 0 0 0 .114-.36.554.554 0 0 0-.344-.52c-.102-.042-.301-.064-.6-.064h-.803zm8.631 0v1.182h.78c.209 0 .384-.018.527-.055a.616.616 0 0 0 .326-.183.532.532 0 0 0 .113-.36.554.554 0 0 0-.343-.52c-.102-.042-.301-.064-.6-.064h-.803zm-3.52.192l-.634 1.771h1.283l-.648-1.771zM13 12.5v-2h2.667l1.333 1-1.333 1zM19 14.5v-2h-2.667L15 13.5l1.333 1zM19 18.5v-2h-2.667L15 17.5l1.333 1zM13 16.5v-2h2.667l1.333 1-1.333 1zM19 22.5v-2h-2.667L15 21.5l1.333 1zM13 20.5v-2h2.667l1.333 1-1.333 1zM19 26.5v-2h-2.667L15 25.5l1.333 1zM13 24.5v-2h2.667l1.333 1-1.333 1zM19 30.5v-2h-2.667L15 29.5l1.333 1zM13 28.5v-2h2.667l1.333 1-1.333 1zM16 37.5c3 0 1-2.62 1-4s0-2-1-2-1 .62-1 2-2 4 1 4zm0-.635a1 1 0 1 0 0-2 1 1 0 0 0 0 2z" fill="#fff" fill-rule="evenodd"/></svg>
